public/logo.svg

<svg width="106" height="115" viewBox="0 0 106 115" fill="none" xmlns="http://www.w3.org/2000/svg">
<path d="M0 0H66.3189V16.1882H20.2065V34.5H51L45 50.5882H20.2065V69.8118H61.5L49 86.5H0V0Z" fill="#22A2F2"/>
<path d="M53.5 34.5L87.7037 71.6426V34.5H106V114.763H87.7037V94.4043L76.9136 83.3034L51.5802 115H30L64.716 69.9569L47.5 50.5L53.5 34.5Z" fill="#4E55FF"/>
</svg>

<svg width="106" height="115" fill="none" xmlns="http://www.w3.org/2000/svg"><path d="M0 0h66.319v16.188H20.206V34.5H51l-6 16.088H20.206v19.224H61.5L49 86.5H0V0Z" fill="#22A2F2"/><path d="m53.5 34.5 34.204 37.143V34.5H106v80.263H87.704V94.404l-10.79-11.1L51.58 115H30l34.716-45.043L47.5 50.5l6-16Z" fill="#4E55FF"/></svg>
